!!!OTL-incipit: Es geht nichts ueber die Gemuetlichkeit, eija, eijo
!!!ARE: Europa, Mitteleuropa, Deutschland, Ober - Franken, Koednitz
!!!SCT: V0002D
!!!TXL: @@DE
!!!YEM: Copyright 1995, estate of Helmut Schaffrath.
**kern	**text
*ICvox	*
!! Mixed meters:  2/4; 3/4
*M2/4	*
*k[f#]	*
*G:	*
{8d	Es
=1	=1
8g	geht
8g	nichts
16b	Ӯ-
16a	-ber
16g	die
16f#	Ge-
=2	=2
8e	-mӮt-
8e	-lich-
8e	-keit,
8cc	ei-
=3	=3
4f#	-ja,
8r	.
8dd	ei-
=4	=4
4g	-jo,
8r}	.
{16d	wenn
16d	der
=5	=5
16.g	Va-
32g	-ter
16g	und
16g	die
16b	Mut-
16a	-ter
16g	in
16f#	die
=6	=6
8e	Bett-
8e	-statt
8e	steigt,
8cc	ei-
=7	=7
4f#	-ja,
8r	.
8dd	ei-
=8	=8
4g	-jo.
8r}	.
!LO:TX:a:t=Walzer auf silben gesungen	!
{8d	.
=9	=9
*M3/4	*
4g	.
8gL	.
8gJ	.
4g	.
=10	=10
4b	.
4a	.
4g	.
=11	=11
4.e	.
8e	.
4e	.
=12	=12
2a}	.
{4g	.
=13	=13
4.f#	.
8f#	.
4f#	.
=14	=14
4f#	.
4e	.
4f#	.
=15	=16
2g	.
8r}	.
==	==
!!!AGN: Geselligkeits - Lied, Gemuetlichkeit
!!!ONB: ESAC (Essen Associative Code) Database: VARIANT
!!!AMT: irregular
!!!AIN: vox
!!!EED: Helmut Schaffrath
!!!EEV: 1.0
!!!GTL: Gemuetlichkeit
!!!source: Heigl, U.; Liertz, M. J.. et al.: Registeer un Beispielsammlung zu den Forschungsexkursionen des Instituts fӮr Volkskunde nach Oberfranken. Maschinenschriftliches Manuskript, MӮnchen 1982.
!!!page: 83
!!!ENC: Anna Maria Matuszewska
!!!EEV: 2025/04/01
*-	*-
